packages/icons/svg/Fill/question-mark-circle.svg

<svg fill="none" height="24" viewBox="0 0 24 24" width="24" xmlns="http://www.w3.org/2000/svg"><path clip-rule="evenodd" d="m13 12.8369v1.163c0 .553-.447 1-1 1s-1-.447-1-1v-2c0-.553.447-1 1-1 .827 0 1.5-.673 1.5-1.49997 0-.827-.673-1.5-1.5-1.5s-1.5.673-1.5 1.5c0 .55297-.447.99997-.99995.99997-.553 0-1-.447-1-.99997 0-1.93 1.56995-3.5 3.49995-3.5s3.5 1.57 3.5 3.5c0 1.57997-1.06 2.90297-2.5 3.33697zm-1 5.1632c-.553 0-1-.447-1-1s.447-1 1-1 1 .447 1 1-.447 1-1 1zm0-16.0001c-5.51397 0-9.99997 4.486-9.99997 10s4.486 10 9.99997 10c5.514 0 10-4.486 10-10s-4.486-10-10-10z" fill="#6b7280" fill-rule="evenodd"/></svg>

<svg width="24" height="24" viewBox="0 0 24 24" fill="none" xmlns="http://www.w3.org/2000/svg">
<g id="Icon/Fill/question-mark-circle">
<path id="Mask" fill-rule="evenodd" clip-rule="evenodd" d="M13 12.8369V13.9999C13 14.5529 12.553 14.9999 12 14.9999C11.447 14.9999 11 14.5529 11 13.9999V11.9999C11 11.4469 11.447 10.9999 12 10.9999C12.827 10.9999 13.5 10.3269 13.5 9.49989C13.5 8.67289 12.827 7.99989 12 7.99989C11.173 7.99989 10.5 8.67289 10.5 9.49989C10.5 10.0529 10.053 10.4999 9.5 10.4999C8.947 10.4999 8.5 10.0529 8.5 9.49989C8.5 7.56989 10.07 5.99989 12 5.99989C13.93 5.99989 15.5 7.56989 15.5 9.49989C15.5 11.0799 14.44 12.4029 13 12.8369ZM12 17.9999C11.447 17.9999 11 17.5529 11 16.9999C11 16.4469 11.447 15.9999 12 15.9999C12.553 15.9999 13 16.4469 13 16.9999C13 17.5529 12.553 17.9999 12 17.9999ZM12 1.99989C6.486 1.99989 2 6.48589 2 11.9999C2 17.5139 6.486 21.9999 12 21.9999C17.514 21.9999 22 17.5139 22 11.9999C22 6.48589 17.514 1.99989 12 1.99989Z" fill="#000000"/>
</g>
</svg>
